X:667
T:Vals # 667
M:3/4
L:1/8
Q:160
K:D
A2d2d2|d2cde2|A2c2e2|e2def2|A2d2f2|f2efg2|A2B2c2|d4z2:|
|:d2f2a2|a2gab2|efg2g2|g2{ag} fga2|A2d2f2|f2{gf} ef g2|A2B2c2|d4z2:|

